src/images/blog/linkedin.svg

<svg fill="none" height="30" viewBox="0 0 30 30" width="30" xmlns="http://www.w3.org/2000/svg"><circle cx="15" cy="15" fill="#000" r="15"/><path clip-rule="evenodd" d="m11.625 9.3125c0 .7249-.5876 1.3125-1.3125 1.3125-.72487 0-1.3125-.5876-1.3125-1.3125 0-.72487.58763-1.3125 1.3125-1.3125.7249 0 1.3125.58763 1.3125 1.3125zm-2.625 2.4375h2.6835v8.25h-2.6835zm9.993.0968-.0282-.0092c-.0186-.0062-.0373-.0123-.0573-.0178-.036-.0083-.072-.0151-.1088-.0211-.1425-.0284-.2985-.0487-.4815-.0487-1.5645 0-2.5567 1.1378-2.8837 1.5773v-1.5773h-2.6835v8.25h2.6835v-4.5s2.028-2.8245 2.8837-.75v5.25h2.6828v-5.5673c0-1.2465-.8542-2.2852-2.007-2.5859z" fill="#fff" fill-rule="evenodd"/></svg>

<svg width="30" height="30" viewBox="0 0 30 30" fill="none" xmlns="http://www.w3.org/2000/svg">
<circle cx="15" cy="15" r="15" fill="black"/>
<path fill-rule="evenodd" clip-rule="evenodd" d="M11.625 9.3125C11.625 10.0374 11.0374 10.625 10.3125 10.625C9.58763 10.625 9 10.0374 9 9.3125C9 8.58763 9.58763 8 10.3125 8C11.0374 8 11.625 8.58763 11.625 9.3125ZM9 11.75H11.6835V20H9V11.75ZM18.993 11.8468L18.9648 11.8376C18.9462 11.8314 18.9275 11.8253 18.9075 11.8198C18.8715 11.8115 18.8355 11.8047 18.7987 11.7987C18.6562 11.7703 18.5002 11.75 18.3172 11.75C16.7527 11.75 15.7605 12.8878 15.4335 13.3273V11.75H12.75V20H15.4335V15.5C15.4335 15.5 17.4615 12.6755 18.3172 14.75V20H21V14.4327C21 13.1862 20.1458 12.1475 18.993 11.8468Z" fill="white"/>
</svg>
